X: 1
T:The Roving Bachelor -- Reel
M:C|
L:1/8
R:reel
B:Ryan's Mammoth Collection
Z:Contributed by Ray Davies,  ray:davies99.freeserve.co.uk
K:G
vGA"^Segno"|(B2{c}B)A B2ge|d2ge dBGA|(B2{c}B)A B2ge|dBAB G2GA|
(B2{c}B)A B2ge|d2ge dBGA|(B2{c}B)A B2ge|dBAB G2H:|
ef|gfed eBBd|gfed e2ef|gfed efge|d2de d2G2|
gfed dBBd|gfed e2ef|gbag fage|d2ge dBGA"^Segno"|]
